gulp_ejs_babel_sass/src/static/images/favicon/favicon.svg

<svg xmlns="http://www.w3.org/2000/svg" xml:space="preserve" width="800" height="800" viewBox="0 0 297.5 297.5">
  <style>
    .tear { fill: #acbfc7; fill-opacity: 1; }
    .eye { fill-opacity: 1; }
    .eye-frame { fill-opacity: 1; }
    .frame { fill-opacity: 1; }
  </style>
  <path class="tear" d="M114.43 121.91c0 12.25-9.97 22.21-22.21 22.21-12.25 0-22.21-9.96-22.21-22.21 0-7.35 10.44-27.55 22.21-46.24 11.77 18.69 22.21 38.89 22.21 46.24" style="fill:#acbfc7"/>
  <path class="eye" d="M148.75 114.77c30.86 0 55.97 25.11 55.97 55.97 0 30.85-25.11 55.96-55.97 55.96s-55.96-25.11-55.96-55.96c0-2.26.14-4.47.4-6.66 22.82-.52 41.22-19.23 41.22-42.17 0-1.57-.19-3.29-.52-5.11 4.74-1.31 9.72-2.03 14.86-2.03m26.49 55.97c0-14.61-11.88-26.49-26.49-26.49-14.6 0-26.48 11.88-26.48 26.49 0 14.6 11.88 26.48 26.48 26.48 14.61 0 26.49-11.88 26.49-26.48" style="fill:#98d577"/>
  <path class="eye-frame" d="M148.75 144.25c14.61 0 26.49 11.88 26.49 26.49 0 14.6-11.88 26.48-26.49 26.48-14.6 0-26.48-11.88-26.48-26.48 0-14.61 11.88-26.49 26.48-26.49m6.5 26.49c0-3.59-2.92-6.5-6.5-6.5s-6.49 2.91-6.49 6.5c0 3.58 2.91 6.49 6.49 6.49s6.5-2.91 6.5-6.49"/>
  <path class="frame" d="M294.05 163.4c2.04 1.9 3.2 4.55 3.2 7.34 0 2.78-1.16 5.43-3.2 7.33-3.17 2.93-78.4 71.91-145.3 71.91-66.89 0-142.13-68.98-145.3-71.91-2.04-1.9-3.2-4.55-3.2-7.33 0-2.79 1.16-5.44 3.2-7.34 1.55-1.43 20.34-18.66 46.96-35.89-.25-1.83-.39-3.7-.39-5.6 0-19.89 28.3-61.87 33.98-70.08a9.97 9.97 0 0 1 8.22-4.31c3.28 0 6.35 1.61 8.22 4.31 3.6 5.22 16.32 24.05 25.13 42.19 7.76-1.61 15.52-2.53 23.18-2.53 66.9 0 142.13 68.98 145.3 71.91m-22.07 7.34c-11.46-9.54-33.38-26.53-58.63-39.89a75.46 75.46 0 0 1 11.35 39.89c0 14.62-4.16 28.28-11.35 39.88 25.25-13.35 47.17-30.35 58.63-39.88m-67.26 0c0-30.86-25.11-55.97-55.97-55.97-5.14 0-10.12.72-14.86 2.03.33 1.82.52 3.54.52 5.11 0 22.94-18.4 41.65-41.22 42.17-.26 2.19-.4 4.4-.4 6.66 0 30.85 25.1 55.96 55.96 55.96s55.97-25.11 55.97-55.96m-112.5-26.62c12.24 0 22.21-9.96 22.21-22.21 0-7.35-10.44-27.55-22.21-46.24-11.77 18.69-22.21 38.89-22.21 46.24 0 12.25 9.96 22.21 22.21 22.21m-8.06 66.5c-7.19-11.6-11.36-25.26-11.36-39.88 0-3.73.28-7.39.8-10.97a42.5 42.5 0 0 1-15.62-13.24c-13.79 9.18-25.21 18.18-32.45 24.21 11.46 9.53 33.38 26.53 58.63 39.88"/>
</svg>

<?xml version="1.0" encoding="iso-8859-1"?>
<!-- Uploaded to: SVG Repo, www.svgrepo.com, Generator: SVG Repo Mixer Tools -->
<!DOCTYPE svg PUBLIC "-//W3C//DTD SVG 1.1//EN" "http://www.w3.org/Graphics/SVG/1.1/DTD/svg11.dtd">
<svg height="800px" width="800px" version="1.1" id="Capa_1" xmlns="http://www.w3.org/2000/svg" xmlns:xlink="http://www.w3.org/1999/xlink" 
	 viewBox="0 0 297.5 297.5" xml:space="preserve">
<g>
	<g id="XMLID_45_">
		<g>
			<path style="fill:#ACBFC7;" d="M114.43,121.91c0,12.25-9.97,22.21-22.21,22.21c-12.25,0-22.21-9.96-22.21-22.21
				c0-7.35,10.44-27.55,22.21-46.24C103.99,94.36,114.43,114.56,114.43,121.91z"/>
			<path style="fill:#98D577;" d="M148.75,114.77c30.86,0,55.97,25.11,55.97,55.97c0,30.85-25.11,55.96-55.97,55.96
				s-55.96-25.11-55.96-55.96c0-2.26,0.14-4.47,0.4-6.66c22.82-0.52,41.22-19.23,41.22-42.17c0-1.57-0.19-3.29-0.52-5.11
				C138.63,115.49,143.61,114.77,148.75,114.77z M175.24,170.74c0-14.61-11.88-26.49-26.49-26.49c-14.6,0-26.48,11.88-26.48,26.49
				c0,14.6,11.88,26.48,26.48,26.48C163.36,197.22,175.24,185.34,175.24,170.74z"/>
			<path d="M294.05,163.4c2.04,1.9,3.2,4.55,3.2,7.34c0,2.78-1.16,5.43-3.2,7.33c-3.17,2.93-78.4,71.91-145.3,71.91
				c-66.89,0-142.13-68.98-145.3-71.91c-2.04-1.9-3.2-4.55-3.2-7.33c0-2.79,1.16-5.44,3.2-7.34c1.55-1.43,20.34-18.66,46.96-35.89
				c-0.25-1.83-0.39-3.7-0.39-5.6c0-19.89,28.3-61.87,33.98-70.08c1.86-2.7,4.93-4.31,8.22-4.31c3.28,0,6.35,1.61,8.22,4.31
				c3.6,5.22,16.32,24.05,25.13,42.19c7.76-1.61,15.52-2.53,23.18-2.53C215.65,91.49,290.88,160.47,294.05,163.4z M271.98,170.74
				c-11.46-9.54-33.38-26.53-58.63-39.89c7.19,11.6,11.35,25.26,11.35,39.89c0,14.62-4.16,28.28-11.35,39.88
				C238.6,197.27,260.52,180.27,271.98,170.74z M204.72,170.74c0-30.86-25.11-55.97-55.97-55.97c-5.14,0-10.12,0.72-14.86,2.03
				c0.33,1.82,0.52,3.54,0.52,5.11c0,22.94-18.4,41.65-41.22,42.17c-0.26,2.19-0.4,4.4-0.4,6.66c0,30.85,25.1,55.96,55.96,55.96
				S204.72,201.59,204.72,170.74z M92.22,144.12c12.24,0,22.21-9.96,22.21-22.21c0-7.35-10.44-27.55-22.21-46.24
				c-11.77,18.69-22.21,38.89-22.21,46.24C70.01,134.16,79.97,144.12,92.22,144.12z M84.16,210.62
				c-7.19-11.6-11.36-25.26-11.36-39.88c0-3.73,0.28-7.39,0.8-10.97c-6.23-3.08-11.59-7.65-15.62-13.24
				c-13.79,9.18-25.21,18.18-32.45,24.21C36.99,180.27,58.91,197.27,84.16,210.62z"/>
			<path d="M148.75,144.25c14.61,0,26.49,11.88,26.49,26.49c0,14.6-11.88,26.48-26.49,26.48c-14.6,0-26.48-11.88-26.48-26.48
				C122.27,156.13,134.15,144.25,148.75,144.25z M155.25,170.74c0-3.59-2.92-6.5-6.5-6.5s-6.49,2.91-6.49,6.5
				c0,3.58,2.91,6.49,6.49,6.49S155.25,174.32,155.25,170.74z"/>
		</g>
		<g>
		</g>
	</g>
</g>
</svg>
